astro/public/img/footer/linkedin.svg

<?xml version="1.0" encoding="UTF-8"?>
<svg width="40px" height="40px" viewBox="0 0 40 40" version="1.1" xmlns="http://www.w3.org/2000/svg" xmlns:xlink="http://www.w3.org/1999/xlink">
    <title>icons8-linkedin-50</title>
    <g id="Page-1" stroke="none" stroke-width="1" fill="none" fill-rule="evenodd">
        <g id="icons8-linkedin-50" fill="#94A3B8" fill-rule="nonzero">
            <path d="M35.5555556,0 L4.44444444,0 C1.98888889,0 0,1.98888889 0,4.44444444 L0,35.5555556 C0,38.0111111 1.98888889,40 4.44444444,40 L35.5555556,40 C38.0111111,40 40,38.0111111 40,35.5555556 L40,4.44444444 C40,1.98888889 38.0111111,0 35.5555556,0 Z M13.3333333,31.1111111 L7.72666667,31.1111111 L7.72666667,15.5555556 L13.3333333,15.5555556 L13.3333333,31.1111111 Z M10.4311111,12.7044444 C8.71777778,12.7044444 7.57333333,11.5622222 7.57333333,10.0377778 C7.57333333,8.51333333 8.71555556,7.37111111 10.62,7.37111111 C12.3333333,7.37111111 13.4777778,8.51333333 13.4777778,10.0377778 C13.4777778,11.5622222 12.3355556,12.7044444 10.4311111,12.7044444 Z M33.3333333,31.1111111 L27.9066667,31.1111111 L27.9066667,22.6088889 C27.9066667,20.2577778 26.46,19.7155556 25.9177778,19.7155556 C25.3755556,19.7155556 23.5666667,20.0777778 23.5666667,22.6088889 C23.5666667,22.9711111 23.5666667,31.1111111 23.5666667,31.1111111 L17.96,31.1111111 L17.96,15.5555556 L23.5666667,15.5555556 L23.5666667,17.7266667 C24.2888889,16.46 25.7355556,15.5555556 28.4488889,15.5555556 C31.1622222,15.5555556 33.3333333,17.7266667 33.3333333,22.6088889 L33.3333333,31.1111111 Z" id="Shape"></path>
        </g>
    </g>
</svg>

<svg xmlns="http://www.w3.org/2000/svg" width="40" height="40"><path fill="#94A3B8" d="M35.556 0H4.444A4.443 4.443 0 0 0 0 4.444v31.112A4.443 4.443 0 0 0 4.444 40h31.112A4.443 4.443 0 0 0 40 35.556V4.444A4.443 4.443 0 0 0 35.556 0ZM13.333 31.111H7.727V15.556h5.606V31.11Zm-2.902-18.407c-1.713 0-2.858-1.142-2.858-2.666 0-1.525 1.143-2.667 3.047-2.667 1.713 0 2.858 1.142 2.858 2.667 0 1.524-1.142 2.666-3.047 2.666Zm22.902 18.407h-5.426V22.61c0-2.351-1.447-2.893-1.99-2.893-.541 0-2.35.362-2.35 2.893v8.502H17.96V15.556h5.607v2.17c.722-1.266 2.169-2.17 4.882-2.17 2.713 0 4.884 2.17 4.884 7.053v8.502Z"/></svg>
